X: 33731
T: Ratholdran Castle
R: reel
M: 4/4
K: Gmajor
G,2B,A, G,B,DG|EDEF GABG|AGAB GEDB,|DEGB ~A2Bc|ed(3Bcd ed(3Bcd|
[1 gedB AcBA|GABd gedB|AGAB GEDB,:|2 gedB AGAB|G2(3BcdgedB|AGAB G3B||
d2Bd gedg|(3efg dB AABc|d2Bd gedg|edef gbaf|
gedB A2BA|GBAF (3GFE DB,|G,2B,D GABG|1 AGAB G2GB:|2 AGAB (3GFE DB,||

